X:1
T:Title
%%score { ( 1 4 ) | ( 2 3 ) }
L:1/8
Q:1/4=114
M:6/4
K:G
V:1 treble nm="Grand Piano"
V:4 treble 
V:2 bass 
V:3 bass 
V:1
 [B,D]6 D4 D2 | .[G,CE]6 .[G,B,G]6 | [DFA]6 D[DFc]- [DFc]4 | [DGB]12 | [B,D]6 D4 D2 | %5
w: E.~L.~Ashford * *|||||
 .[CE]6 G4 D2 | A6 DA- A4 | G12 | [Ec]6 c2 G2 [EA]2 | [DB]4 [DB]2 [DB]6 | z6 .A6 | F4 GF E4 D2 | %12
w: |||||||
 [B,D]6 D4 D2[Q:1/4=112][Q:1/4=111][Q:1/4=109][Q:1/4=107][Q:1/4=106][Q:1/4=104][Q:1/4=102][Q:1/4=101][Q:1/4=99][Q:1/4=97][Q:1/4=96][Q:1/4=94][Q:1/4=92][Q:1/4=91][Q:1/4=89][Q:1/4=87] | %13
w: |
 z6 .[DG]6 | [DB]6 [CD][CDA]- [CDA]4 | [B,DG]12 |] %16
w: |||
V:2
 z6 B,4 B,2 | z2[K:treble] F2 G2[K:bass] z4 D2 | D,6 D,D,- D,4 | G,12 | z6 B,4 B,2 | %5
 z2[K:treble] F2 G2[K:bass] B,6 | [D,CD]6 [D,C][D,CD]- [D,CD]4 | [G,B,D]12 | %8
 [C,G,]6 [C,G,]4 [C,G,]2 | [G,,G,]4 [G,,G,]2 [G,,G,]6 | [A,,F,]6 .[A,,E,]4 [A,,A,]2 | %11
 [D,A,C]4 [D,A,C]2 [D,F,C]6 | z6 B,4 B,2 | .C4 E2 B,,4 C,2 | [D,G,]6 D,D,- D,4 | G,,12 |] %16
V:3
 [G,,G,]12 | G,,6[K:treble][K:bass] G,,6 | x12 | x12 | [G,,G,]12 | G,,12[K:treble][K:bass] | x12 | %7
 x12 | x12 | x12 | x12 | x12 | [G,,G,]12 | [C,G,]6 z6 | x12 | x12 |] %16
V:4
 x12 | x12 | x12 | x12 | x12 | G,12 | x12 | x12 | z6 .E6 | x12 | [DA]6 ^C2- [A,CE]2 [CG]2 | x12 | %12
 x12 | E2 F2 G2 G,4- [G,EA]2 | x12 | x12 |] %16

